storage/app/icons/phosphoricons/duotone/person-simple-duotone.svg

<svg xmlns="http://www.w3.org/2000/svg" fill="currentColor" viewBox="0 0 256 256"><path d="M152 48a24 24 0 1 1-24-24 24 24 0 0 1 24 24" opacity=".2"/><path d="M128 80a32 32 0 1 0-32-32 32 32 0 0 0 32 32m0-48a16 16 0 1 1-16 16 16 16 0 0 1 16-16m102.86 100.12a8 8 0 0 1-11 2.74c-.35-.21-35.11-20.59-83.88-22.67V149l62 69.73a8 8 0 1 1-12 10.62L128 164l-58 65.31a8 8 0 1 1-12-10.62L120 149v-36.82c-49 2.08-83.52 22.46-83.88 22.68a8 8 0 0 1-8.24-13.72C29.6 120.11 70.45 96 128 96s98.4 24.11 100.12 25.14a8 8 0 0 1 2.74 10.98"/></svg>

<svg xmlns="http://www.w3.org/2000/svg" viewBox="0 0 256 256" fill="currentColor"><path d="M152,48a24,24,0,1,1-24-24A24,24,0,0,1,152,48Z" opacity="0.2"/><path d="M128,80A32,32,0,1,0,96,48,32,32,0,0,0,128,80Zm0-48a16,16,0,1,1-16,16A16,16,0,0,1,128,32ZM230.86,132.12a8,8,0,0,1-11,2.74c-.35-.21-35.11-20.59-83.88-22.67V149l62,69.73a8,8,0,1,1-12,10.62L128,164,70,229.31a8,8,0,1,1-12-10.62L120,149V112.18c-49,2.08-83.52,22.46-83.88,22.68a8,8,0,0,1-8.24-13.72C29.6,120.11,70.45,96,128,96s98.4,24.11,100.12,25.14A8,8,0,0,1,230.86,132.12Z"/></svg>
